X: 6
T:Ye Banks and Braes
R:
M:3/4
L:1/4
K:D
A | d2 d | e3/2d/2 e | f a f | e3/2d/2 e |
f3/2e/2 d | d B A | A B d | e2 A |
d2 d | e3/2d/2 e | f a f | e3/2d/2 e |
f3/2e/2 d | d B A | A B d | d2 f ||
a2 b | a f d | a2 b | a f d |
a f d | a f d | b>a g/2f/2 | e2 A |
d2 d | e3/2d/2 e | f a f | e3/2d/2 e |
f3/2e/2 d | d B A | A B d | d2 |]
